48x48/categories/applications-libraries.svg

<?xml version="1.0" encoding="UTF-8" standalone="no"?>
<svg
   xmlns:dc="http://purl.org/dc/elements/1.1/"
   xmlns:cc="http://creativecommons.org/ns#"
   xmlns:rdf="http://www.w3.org/1999/02/22-rdf-syntax-ns#"
   xmlns:svg="http://www.w3.org/2000/svg"
   xmlns="http://www.w3.org/2000/svg"
   xmlns:sodipodi="http://sodipodi.sourceforge.net/DTD/sodipodi-0.dtd"
   xmlns:inkscape="http://www.inkscape.org/namespaces/inkscape"
   width="47.5"
   height="47.5"
   viewBox="0 0 38 38"
   id="svg2"
   version="1.1"
   inkscape:version="0.48.4 r9939"
   sodipodi:docname="applications-libraries.svg">
  <metadata
     id="metadata16">
    <rdf:RDF>
      <cc:Work
         rdf:about="">
        <dc:format>image/svg+xml</dc:format>
        <dc:type
           rdf:resource="http://purl.org/dc/dcmitype/StillImage" />
      </cc:Work>
    </rdf:RDF>
  </metadata>
  <defs
     id="defs14" />
  <sodipodi:namedview
     pagecolor="#ffffff"
     bordercolor="#666666"
     borderopacity="1"
     objecttolerance="10"
     gridtolerance="10"
     guidetolerance="10"
     inkscape:pageopacity="0"
     inkscape:pageshadow="2"
     inkscape:window-width="1440"
     inkscape:window-height="848"
     id="namedview12"
     showgrid="false"
     inkscape:zoom="4.9684211"
     inkscape:cx="-8.2521186"
     inkscape:cy="23.347458"
     inkscape:window-x="0"
     inkscape:window-y="0"
     inkscape:window-maximized="1"
     inkscape:current-layer="svg2" />
  <path
     sodipodi:type="arc"
     style="fill:#b2a546;fill-opacity:1;stroke:none"
     id="path2993"
     sodipodi:cx="-41.864407"
     sodipodi:cy="8.4533901"
     sodipodi:rx="14.491526"
     sodipodi:ry="14.491526"
     d="m -27.372881,8.4533901 a 14.491526,14.491526 0 1 1 -28.983051,0 14.491526,14.491526 0 1 1 28.983051,0 z"
     transform="matrix(1.3249123,0,0,1.3249123,74.466667,7.7999995)" />
  <g
     id="g3763"
     style="fill:#ffffff"
     transform="matrix(0.89151667,0,0,0.89151667,2.0611339,2.0611833)">
    <path
       id="path3765"
       d="m 5.59375,4.171875 c -0.550781,0 -0.992188,0.4375 -0.992188,0.984375 l 0,27.699219 c 0,0.546875 0.441407,0.984375 0.992188,0.984375 l 5.613281,0 c 0.554688,0 0.996094,-0.4375 0.996094,-0.984375 l 0,-27.699219 c 0,-0.546875 -0.441406,-0.984375 -0.996094,-0.984375 z m 0.9375,2.78125 3.742188,0 0,11.125 -3.742188,0 z m 1.871094,16.6875 c 1.03125,0 1.871094,0.832031 1.871094,1.855469 0,1.023437 -0.839844,1.855468 -1.871094,1.855468 -1.035156,0 -1.871094,-0.832031 -1.871094,-1.855468 0,-1.023438 0.835938,-1.855469 1.871094,-1.855469 z"
       style="fill:#ffffff"
       inkscape:connector-curvature="0" />
    <path
       id="path3767"
       d="m 14.949219,4.171875 c -0.550781,0 -0.992188,0.4375 -0.992188,0.984375 l 0,27.699219 c 0,0.546875 0.441407,0.984375 0.992188,0.984375 l 3.742187,0 c 0.554688,0 0.996094,-0.4375 0.996094,-0.984375 l 0,-27.699219 c 0,-0.546875 -0.441406,-0.984375 -0.996094,-0.984375 z m 0,2.78125 3.742187,0 0,11.125 -3.742187,0 z m 1.871093,16.6875 c 1.035157,0 1.871094,0.832031 1.871094,1.855469 0,1.023437 -0.835937,1.855468 -1.871094,1.855468 -1.03125,0 -1.871093,-0.832031 -1.871093,-1.855468 0,-1.023438 0.839843,-1.855469 1.871093,-1.855469 z"
       style="fill:#ffffff"
       inkscape:connector-curvature="0" />
    <path
       id="path3769"
       d="m 21.296875,5.148438 c -0.53125,0.144531 -0.84375,0.679687 -0.703125,1.207031 l 7.234375,26.757812 c 0.144531,0.527344 0.6875,0.835938 1.21875,0.695313 l 3.613281,-0.957032 c 0.535156,-0.144531 0.847656,-0.679687 0.703125,-1.207031 L 26.128906,4.886719 C 25.988281,4.359375 25.445312,4.050781 24.914062,4.191406 z m 0.726563,2.6875 3.617187,-0.957032 2.902344,10.746094 -3.613281,0.960938 z m 6.167968,15.640624 c 0.996094,-0.265624 2.023438,0.324219 2.289063,1.3125 0.269531,0.988282 -0.324219,2.007813 -1.320313,2.269532 -1,0.265625 -2.023437,-0.320313 -2.292968,-1.308594 -0.265626,-0.988281 0.324218,-2.007812 1.324218,-2.273438 z"
       style="fill:#ffffff"
       inkscape:connector-curvature="0" />
  </g>
</svg>

<svg width="47.5" xmlns="http://www.w3.org/2000/svg" height="47.5" viewBox="0 0 38 38" xmlns:xlink="http://www.w3.org/1999/xlink">
<g style="fill:#b2a546">
<path d="M 5.59375 4.171875 C 5.042969 4.171875 4.601562 4.609375 4.601562 5.15625 L 4.601562 32.855469 C 4.601562 33.402344 5.042969 33.839844 5.59375 33.839844 L 11.207031 33.839844 C 11.761719 33.839844 12.203125 33.402344 12.203125 32.855469 L 12.203125 5.15625 C 12.203125 4.609375 11.761719 4.171875 11.207031 4.171875 Z M 6.53125 6.953125 L 10.273438 6.953125 L 10.273438 18.078125 L 6.53125 18.078125 Z M 8.402344 23.640625 C 9.433594 23.640625 10.273438 24.472656 10.273438 25.496094 C 10.273438 26.519531 9.433594 27.351562 8.402344 27.351562 C 7.367188 27.351562 6.53125 26.519531 6.53125 25.496094 C 6.53125 24.472656 7.367188 23.640625 8.402344 23.640625 Z "/>
<path d="M 14.949219 4.171875 C 14.398438 4.171875 13.957031 4.609375 13.957031 5.15625 L 13.957031 32.855469 C 13.957031 33.402344 14.398438 33.839844 14.949219 33.839844 L 18.691406 33.839844 C 19.246094 33.839844 19.6875 33.402344 19.6875 32.855469 L 19.6875 5.15625 C 19.6875 4.609375 19.246094 4.171875 18.691406 4.171875 Z M 14.949219 6.953125 L 18.691406 6.953125 L 18.691406 18.078125 L 14.949219 18.078125 Z M 16.820312 23.640625 C 17.855469 23.640625 18.691406 24.472656 18.691406 25.496094 C 18.691406 26.519531 17.855469 27.351562 16.820312 27.351562 C 15.789062 27.351562 14.949219 26.519531 14.949219 25.496094 C 14.949219 24.472656 15.789062 23.640625 16.820312 23.640625 Z "/>
<path d="M 21.296875 5.148438 C 20.765625 5.292969 20.453125 5.828125 20.59375 6.355469 L 27.828125 33.113281 C 27.972656 33.640625 28.515625 33.949219 29.046875 33.808594 L 32.660156 32.851562 C 33.195312 32.707031 33.507812 32.171875 33.363281 31.644531 L 26.128906 4.886719 C 25.988281 4.359375 25.445312 4.050781 24.914062 4.191406 Z M 22.023438 7.835938 L 25.640625 6.878906 L 28.542969 17.625 L 24.929688 18.585938 Z M 28.191406 23.476562 C 29.1875 23.210938 30.214844 23.800781 30.480469 24.789062 C 30.75 25.777344 30.15625 26.796875 29.160156 27.058594 C 28.160156 27.324219 27.136719 26.738281 26.867188 25.75 C 26.601562 24.761719 27.191406 23.742188 28.191406 23.476562 Z "/>
</g>
</svg>
